icons/desktop/20/email-shield-20.svg

<svg width="20" height="20" viewBox="0 0 20 20" fill="none" xmlns="http://www.w3.org/2000/svg">
<g clip-path="url(#clip0_8069_32724)">
<path fill-rule="evenodd" clip-rule="evenodd" d="M15.3789 8.9998C15.7749 9.0018 16.1687 9.12124 16.5117 9.35722C16.8547 9.59222 17.215 9.81443 17.583 10.0154C17.9699 10.2274 18.3724 10.4197 18.7783 10.5887C19.6391 10.9477 20.1395 11.8797 19.9668 12.8035L19.6875 14.3055C19.5647 14.9692 19.3549 15.5608 19.0596 16.0672C19.0179 16.1386 18.9737 16.2082 18.9287 16.2762C18.2697 17.2761 17.3676 18.1464 16.3887 18.7264C16.0798 18.9102 15.7307 19.0008 15.3809 19.0008L15.3818 18.9998C15.0289 18.9998 14.6743 18.9045 14.3574 18.7166C13.3865 18.1386 12.488 17.2731 11.832 16.2791C11.47 15.7281 11.2143 15.0626 11.0723 14.2996L10.792 12.7742C10.621 11.8464 11.1189 10.9146 11.9756 10.5584C12.2825 10.4304 12.6047 10.283 12.9346 10.1121C13.3826 9.88311 13.8223 9.62545 14.2383 9.34746C14.5858 9.11445 14.9823 8.99877 15.3779 9.00078L15.3789 8.9998ZM15.3701 10.5008C15.2673 10.5008 15.1642 10.5307 15.0713 10.5936C14.6063 10.9026 14.1191 11.1911 13.6221 11.4441C13.2561 11.6331 12.8967 11.7982 12.5537 11.9422C12.344 12.0293 12.2228 12.265 12.2666 12.5018L12.5469 14.0271C12.6509 14.5911 12.833 15.071 13.084 15.452C13.6179 16.2599 14.3421 16.9616 15.125 17.4266C15.2031 17.4727 15.2923 17.4963 15.3809 17.4969L15.3779 10.4988C15.375 10.4988 15.3721 10.4988 15.3691 10.4988L15.3701 10.5008Z" fill="black"/>
<path fill-rule="evenodd" clip-rule="evenodd" d="M2.63184 3.3914C5.85784 2.8714 9.19511 2.87322 12.4121 3.39922C13.7303 3.61297 14.7299 4.64037 14.9521 5.93242L14.959 5.94316L14.9541 5.94511C14.9832 6.11824 15 6.29612 15 6.47734V7.52812C14.432 7.58812 13.8853 7.77839 13.4033 8.10136C13.3543 8.13436 13.3 8.15921 13.25 8.19121V6.99687L9.13965 9.53203C8.63372 9.84392 8.06888 9.9998 7.50098 9.9998C6.93408 9.9998 6.36726 9.84392 5.86133 9.53203L1.75 6.9959V10.5242C1.75011 11.1911 2.23119 11.7718 2.87012 11.8758C4.97709 12.2198 7.13732 12.3095 9.2793 12.1775C9.2603 12.4635 9.26342 12.7538 9.31738 13.0457L9.31641 13.0447L9.47656 13.9197C8.8177 13.9627 8.15786 13.9998 7.5 13.9998C5.858 13.9998 4.20489 13.8673 2.58789 13.6023C1.08899 13.3593 0.000106096 12.0641 0 10.5242V6.48027C0 6.29809 0.0161692 6.11916 0.0458984 5.94511L0.0419922 5.94316L0.0478516 5.93242C0.274346 4.63836 1.29137 3.60861 2.63184 3.3914ZM7.5 4.75078C5.96805 4.75078 4.42409 4.87493 2.91113 5.11992C2.71394 5.15156 2.53281 5.22361 2.375 5.32597L6.7793 8.04179C7.22423 8.31668 7.77675 8.31668 8.22168 8.04179L12.6289 5.32304C12.4801 5.22517 12.3118 5.15538 12.1299 5.12578C10.6049 4.87679 9.04795 4.75078 7.5 4.75078Z" fill="black"/>
</g>
<defs>
<clipPath id="clip0_8069_32724">
<rect width="20" height="20" fill="white"/>
</clipPath>
</defs>
</svg>

<!-- This Source Code Form is subject to the terms of the Mozilla Public
   - License, v. 2.0. If a copy of the MPL was not distributed with this
   - file, You can obtain one at http://mozilla.org/MPL/2.0/. -->
<svg xmlns="http://www.w3.org/2000/svg" width="20" height="20" fill="context-fill" fill-opacity="context-fill-opacity" viewBox="0 0 20 20">
    <g fill-rule="evenodd" clip-path="url(#clip0_8069_32724)" clip-rule="evenodd">
        <path d="M15.379 9c.396.002.79.121 1.133.357a12.5 12.5 0 0 0 2.266 1.232 2.01 2.01 0 0 1 1.189 2.214l-.28 1.502a5.5 5.5 0 0 1-.627 1.762 4 4 0 0 1-.131.21c-.66 1-1.561 1.87-2.54 2.45A1.97 1.97 0 0 1 15.38 19V19a2 2 0 0 1-1.024-.283c-.97-.578-1.869-1.444-2.525-2.438-.362-.55-.618-1.216-.76-1.98l-.28-1.525c-.171-.928.327-1.86 1.184-2.216.306-.128.629-.275.959-.446.448-.229.887-.487 1.303-.765a2.03 2.03 0 0 1 1.14-.346zm-.009 1.5a.53.53 0 0 0-.299.094c-.465.309-.952.597-1.449.85-.366.19-.725.354-1.068.498a.504.504 0 0 0-.287.56l.28 1.525c.104.564.286 1.044.537 1.425.534.808 1.258 1.51 2.041 1.975.078.046.167.07.256.07l-.003-6.998h-.009z" />
        <path d="M2.632 3.391a30.7 30.7 0 0 1 9.78.008 3.08 3.08 0 0 1 2.54 2.533l.007.011-.005.002q.045.26.046.532v1.051a3.5 3.5 0 0 0-1.597.573c-.049.033-.103.058-.153.09V6.997L9.14 9.532a3.11 3.11 0 0 1-3.279 0L1.75 6.996v3.528c0 .667.481 1.248 1.12 1.352 2.107.344 4.267.434 6.41.302a3.5 3.5 0 0 0 .037.868v-.001l.16.875c-.66.043-1.32.08-1.977.08-1.642 0-3.295-.133-4.912-.398C1.089 13.36 0 12.064 0 10.524V6.48q0-.273.046-.535l-.004-.002.006-.01A3.12 3.12 0 0 1 2.632 3.39M7.5 4.751c-1.532 0-3.076.124-4.589.369a1.4 1.4 0 0 0-.536.206l4.404 2.716c.445.275.998.275 1.443 0l4.407-2.719a1.3 1.3 0 0 0-.5-.197A29 29 0 0 0 7.5 4.75" />
    </g>
</svg>
